X:1
T:Caligaverunt
T:Feria VI in Parasceve ad Matutinem: Responsorium IX
T:Juozas Naujalis (1869-1934) Op. 7, No. 1
T:by Mutopia-2007/04/29-967
T:by Mutopia-2007/04/29-967
T:by Mutopia-2007/04/29-967
C:Juozas Naujalis
Z:by Mutopia-2007/04/29-967
%%score [ 1 2 3 4 ]
L:1/8
Q:1/4=66
M:4/4
K:G
V:1 treble nm="Cantus"
V:2 treble nm="Altus"
V:3 treble-8 nm="Tenor"
V:4 bass nm="Bassus"
V:1
"^Largo"!p! (B3 A) G2 F2 | E6 F2 | (G3 A) B2 B2 |!<(! c4 B2 d2!<)! |!mf! (e3 d c2) B2 | %5
w: Ca- * li\- ga\-|ve\- runt|o- * cu\- li|me\- i a|fle- * * tu|
 (A2 d2) !fermata!d4 |!p! B2 A2 c2 B2 | A4 G4 | A6 A2 | !breath!B4"^rit." B2 B2 | %10
w: me- * o,|qui\- a e\- lon\-|ga\- tus|est a|me, qui con\-|
!>(! A3 F G2 F2!>)! |!pp! E4 z4 | z2!f! E2 e3 d |!>(! c2 c2 B3 G!>)! | A6 z2 |!pp! B6 A2 | G4 G4 | %17
w: so la\- ba\- tur|me,|Vi\- de\- te,|o\- mnes po\- pu\-|li.|Si est|do\- lor|
 A3 A B4 |!<(! E2 F2 A2 G2!<)! |"^rit." (F8- | F2 E4 ^D2) | !fermata!E8!fine! ||[M:3/4] z6 | z6 | %24
w: si\- mi\- lis|si\- cut do\- lor|me|_ _ _|us.|||
 z6 | z2 z2!f! F2 | G2 B2 B c | d4 d2 | d2 e3 e | !breath!e2 g4 |"^rit." e2 d4 |!p! !fermata!d6 || %32
w: |qui|tran\- si\- tis per|vi\- am,|at\- ten\- di\-|te et|vi\- de\-|te|
[M:4/4]!pp! B6 ((BA)) | G4 F4 | A3 G F4- | F4 G2 (Bc) |"^rit." d2 (cB) A4 |!<(!!>(! F8!<)!!>)! | %38
w: Si est *|do\- lor|si\- mi\- lis|_ si\- cut *|do\- lor * me\-|_|
 !fermata!G8!D.C.! |] %39
w: us.|
V:2
!p! (G3 F) E2 B,2 | E6 ^D2 | (E3 F) G2 F2 |!<(! E4 D2 G2!<)! |!mf! (G2 cB A2) G2- | %5
w: Ca- * li\- ga\-|ve\- runt|o- * cu\- li|me\- i a|fle- * * * tu|
 G2 F2 !fermata!G4 | G2 F2 E2 G2 | F4 E4 | E4 E4 | !breath!^D4"^rit." E2 E2 |!>(! E3 E E2 ^D2!>)! | %11
w: _ me\- o,|qui\- a e\- lon\-|ga\- tus|est a|me, qui con\-|so\- la\- ba\- tur|
!pp! B,4 z4 | z2!f! E2 E2 (F^G) |!>(! A2 F2 G3 G!>)! | F6 z2 |!pp! D6 ^D2 | E2 C2 G4- | %17
w: me,|Vi\- de\- te, *|o\- mnes po\- pu\-|li.|Si est|do\- lor si\--|
 G4 (G2 F2) | E4 z4 | C2 E2"^rit." E2 (DC) | B,8 | !fermata!B,8 ||[M:3/4]!p! B4 A2 | (^G4 B2- | %24
w: * mi- *|lis|si\- cut do\- lor *|me\-|us.|O vos|o _|
 B2 A=GFE) | !breath!^D4!f! D2 | E2 E2 E E | F4 G2 | G2 G3 G | !breath!G2 G4 |"^rit." G4 F2 | %31
w: _ _ _ _ _|mnes qui|tran\- si\- tis per|vi\- am,|at\- ten\- di\-|te et|vi\- de\-|
!p! !fermata!G6 ||[M:4/4]!pp! G6 (GF) | E6 D2 | (C2 E4) E2 | ^D4 E2 E2 |"^rit." F2 G2 (E4- | %37
w: te|Si est *|do\- lor|si- * mi\-|lis si\- cut|do\- lor me|
!<(!!>(! E2 ^D^C D4)!<)!!>)! | !fermata!E8 |] %39
w: _ _ _ _|us.|
V:3
 z8 |!p! (B3 A) G2 F2 | E6 F2 |!<(! G2 G A B4!<)! |!mf! c2 e2 e2 e2 | A4 !fermata!B4 | z8 | %7
w: |Ca- * li\- ga\-|ve\- runt|o\- cu\- li me\-|i a fle\- tu|me\- o,||
!p! d2 c2 e2 d2 | c3 B A2 E2 | !breath!F4"^rit." G2 G2 |!>(! A2 c2 B3 A!>)! |!pp! G4 z2!f! E2 | %12
w: qui\- a e\- lon\-|ga\- tus est a|me, qui con\-|so\- la\- ba\- tur|me, Vi\-|
 (e3 d c2) d2 |!>(! e2 (dc) d3 B!>)! | A6 z2 | G4 G4 | (G2 e4) _e2 | _e4 d4 | c4 z4 | %19
w: de\- * * te,|o mnes * po\- pu\-|li.|Si est|do\-- * lor|si\- mi\-|lis|
 A2 c2"^rit." c2 (BA) | (G4 F4) | !fermata!G8 ||[M:3/4] z6 |!p! e4 d2 | c6 | !breath!B4!f! B2 | %26
w: si\- cut do\- lor *|me\- *|us.||O vos|o-|mnes qui|
 B2 G2 G G | A4 B2 | B2 B3 B | !breath!c2 (e3 d) |"^rit." (cB) A4 |!p! !fermata!B6 || %32
w: tran\- si\- tis per|vi\- am,|at\- ten\- di\-|te et *|vi\- * de\-|te|
[M:4/4]!pp! (d4 e2) B2 | B4 B4 | c6 A2 | B4 B2 G2 |"^rit." A2 G2 (A2 c2 |!<(!!>(! B8)!<)!!>)! | %38
w: Si * est|do\- lor|si\- mi\-|lis si\- cut|do\- lor me\- _|_|
 !fermata!B8 |] %39
w: us.|
V:4
 z8 |!p! (G,3 F,) E,2 B,,2 | E,6 D,2 |!<(! C,2 C, C, G,,4!<)! |!mf! C,2 A,,2 C,2 ^C,2 | %5
w: |Ca- * li\- ga\-|ve\- runt|o\- cu\- li me\-|i a fle\- tu|
 D,4 !fermata!G,,4 | z8 | D,2 A,2 E,3 E, | A,,2 A,,2 C,2 C,2 | !breath!B,,4"^rit." E,2 E,2 | %10
w: me\- o,||qui\- a e\- lon\-|ga\- tus est a|me, qui con\-|
!>(! C,2 A,,2 B,,3 B,,!>)! |!pp! [E,,E,]4 z4 | z2!f! C,2 C3 B, |!>(! A,2 A,2 G,3 G,!>)! | D,6 z2 | %15
w: so\- la\- ba\- tur|me,|Vi\- de\- te|o\- mnes po\- pu\-|li.|
!pp! G,,4 B,,4 | C,6 C,2 | C,4 G,,4 | A,,4 z4 | A,,3 A,,"^rit." A,,2 A,,2 | B,,8 | %21
w: Si est|do\- lor|si\- mi\-|lis|si * do lor|me|
 !fermata![E,,E,]8 ||[M:3/4] z6 |!p! E,4 E,2 | A,,6 | !breath!B,,4!f! B,,2 | E,2 E,2 E, E, | %27
w: us.||O vos|o|mnes qui|tran\- si\- tis per|
 D,4 G,2 | G,2 E,3 E, | !breath!C,2 C,4 |"^rit." C,2 D,4 |!p! !fermata!G,,6 ||[M:4/4]!pp! G,4 E,4 | %33
w: vi\- am,|at\- ten\- di\-|te et|vi\- de\-|te|Si *|
 E,4 B,,4 | A,,6 C,2 | B,,4 (E,4 |"^rit." D,2) E,2 C,2 A,,2 |!<(!!>(! B,,8!<)!!>)! | %38
w: do\- lor|si\- mi\-|lis si-|* cut do\- lor|me\-|
 !fermata!E,8 |] %39
w: us.|

